assets/images/ico_feature3.svg

<svg width="64" height="64" viewBox="0 0 64 64" fill="none" xmlns="http://www.w3.org/2000/svg">
<path d="M32.1062 6.92886C31.8658 6.95912 31.6458 7.07885 31.4895 7.26401C31.3343 7.44781 31.253 7.68285 31.261 7.92324V11.5139C31.2595 11.6416 31.283 11.7683 31.3304 11.8868C31.3781 12.0059 31.4488 12.1144 31.5386 12.2059C31.6284 12.2975 31.7355 12.3702 31.8537 12.4199C31.9718 12.4696 32.0987 12.4952 32.2269 12.4952C32.355 12.4952 32.4819 12.4696 32.6001 12.4199C32.7183 12.3702 32.8253 12.2975 32.9151 12.2059C33.0049 12.1144 33.0757 12.0059 33.1233 11.8868C33.1707 11.7683 33.1943 11.6416 33.1928 11.5139V7.92325C33.1974 7.78451 33.1723 7.64634 33.1191 7.51809C33.0653 7.38823 32.9839 7.27163 32.8805 7.17642C32.7771 7.08121 32.6543 7.00969 32.5205 6.96692C32.3868 6.92418 32.2454 6.91118 32.1062 6.92886ZM32.1062 6.92886L32.1374 7.1769M32.1062 6.92886C32.106 6.92887 32.1059 6.92889 32.1058 6.9289L32.1374 7.1769M32.1374 7.1769C31.9595 7.1993 31.7965 7.28793 31.6805 7.42529C31.5645 7.56265 31.504 7.73874 31.511 7.91874H32.9428C32.9468 7.81434 32.9282 7.71031 32.8882 7.61387C32.8482 7.51743 32.7878 7.4309 32.7111 7.3603C32.6345 7.2897 32.5435 7.23672 32.4444 7.20505C32.3453 7.17338 32.2405 7.16377 32.1374 7.1769ZM32.1062 52.2489C31.8658 52.2791 31.6458 52.3988 31.4895 52.584M32.1062 52.2489L31.4895 52.584M32.1062 52.2489C32.2454 52.2312 32.3868 52.2442 32.5205 52.2869L32.4444 52.5251L32.5205 52.2869C32.6543 52.3297 32.7771 52.4012 32.8805 52.4964C32.9839 52.5916 33.0653 52.7082 33.1191 52.8381C33.1723 52.9663 33.1974 53.1045 33.1928 53.2433V56.834C33.1943 56.9616 33.1707 57.0883 33.1233 57.2068C33.0757 57.3259 33.0049 57.4344 32.9151 57.5259C32.8253 57.6175 32.7182 57.6902 32.6001 57.7399C32.4819 57.7896 32.3551 57.8152 32.2269 57.8152C32.0987 57.8152 31.9718 57.7896 31.8537 57.7399C31.7355 57.6902 31.6284 57.6175 31.5386 57.5259C31.4488 57.4344 31.3781 57.3259 31.3304 57.2068C31.283 57.0883 31.2595 56.9616 31.261 56.8339V53.2432M32.1062 52.2489L31.261 53.2432M31.4895 52.584C31.3343 52.7678 31.253 53.0029 31.261 53.2432M31.4895 52.584L31.261 53.2432M63.2599 32.4861C63.2592 32.4791 63.2582 32.4709 63.2568 32.462L63.2594 32.3772C63.2594 32.3766 63.2594 32.376 63.2594 32.3754C63.2585 15.1641 49.3577 1.19446 32.2269 1.19446C15.0954 1.19446 1.19434 15.1651 1.19434 32.3772C1.19434 49.5891 15.0954 63.5599 32.2269 63.5599C47.0678 63.5599 59.4581 53.0458 62.5132 39.05C62.5245 39.0112 62.5338 38.9607 62.5412 38.9185C62.5521 38.8573 62.565 38.7767 62.5794 38.6805C62.6084 38.4877 62.6447 38.2267 62.6852 37.9213C62.7663 37.3102 62.865 36.5173 62.9577 35.7275C63.0503 34.9379 63.1371 34.15 63.1943 33.5494C63.2229 33.2495 63.2443 32.9939 63.2553 32.8074C63.2607 32.7147 63.2639 32.6351 63.2637 32.5743C63.2636 32.5444 63.2627 32.5138 63.2599 32.4861ZM32.2269 3.13319C48.0098 3.13319 60.8467 15.7387 61.3145 31.487C61.3135 31.4952 61.3125 31.5035 61.3115 31.5119C61.2373 32.1258 61.1385 33.1085 61.0396 34.1497C60.8489 36.1577 60.656 38.3997 60.6361 38.6581C57.7683 51.78 46.1509 61.6211 32.2269 61.6211C16.1476 61.6211 3.12608 48.5378 3.12608 32.3772C3.12608 16.2165 16.1476 3.13319 32.2269 3.13319ZM19.1351 18.4642L19.1351 18.4641L19.1314 18.4649C18.9944 18.4948 18.8656 18.5542 18.7538 18.6389C18.6421 18.7236 18.5501 18.8317 18.4842 18.9555C18.4183 19.0794 18.38 19.2161 18.3719 19.3561C18.3638 19.4959 18.386 19.6358 18.4369 19.7662C18.437 19.7665 18.4371 19.7668 18.4373 19.7671L25.6177 38.469L25.6185 38.4709C25.667 38.5941 25.7401 38.7062 25.8335 38.8C25.9269 38.8938 26.0385 38.9675 26.1615 39.0164L26.1636 39.0172L44.7494 46.209C44.7502 46.2093 44.751 46.2097 44.7519 46.21C44.9256 46.2806 45.116 46.299 45.3 46.2628C45.4849 46.2265 45.6551 46.1367 45.7896 46.0047C45.9242 45.8728 46.0173 45.7043 46.0578 45.5201C46.0982 45.3359 46.0842 45.1439 46.0176 44.9676L46.0171 44.9664L38.836 26.2629L38.8353 26.261C38.7868 26.1377 38.7136 26.0257 38.6202 25.9318C38.5269 25.838 38.4152 25.7643 38.2922 25.7155L38.2902 25.7147L19.7042 18.5227C19.5248 18.446 19.3264 18.4255 19.1351 18.4642ZM37.2008 27.3772L43.4248 43.6299L27.253 37.3546L21.029 21.102L37.2008 27.3772ZM32.2269 29.9691C30.9016 29.9691 29.8293 31.0483 29.8293 32.3772C29.8293 33.7059 30.9016 34.7853 32.2269 34.7853C33.5522 34.7853 34.6245 33.7059 34.6245 32.3772C34.6245 31.0483 33.5522 29.9691 32.2269 29.9691ZM7.72941 31.4089C7.4732 31.4331 7.23734 31.5585 7.07354 31.7571C6.90976 31.9558 6.83137 32.2114 6.85529 32.4678C6.87921 32.7243 7.00355 32.9609 7.20137 33.1256C7.396 33.2877 7.64604 33.367 7.89806 33.3465H11.4649C11.5924 33.3481 11.719 33.3243 11.8372 33.2765C11.9561 33.2285 12.0642 33.1573 12.1553 33.0671C12.2464 32.9768 12.3187 32.8693 12.368 32.7509C12.4173 32.6325 12.4426 32.5055 12.4426 32.3772C12.4426 32.2489 12.4173 32.1218 12.368 32.0034C12.3187 31.885 12.2464 31.7775 12.1553 31.6873C12.0642 31.597 11.9561 31.5258 11.8372 31.4778C11.719 31.43 11.5924 31.4062 11.4649 31.4078H7.89811C7.84196 31.4032 7.78551 31.4036 7.72941 31.4089ZM52.8294 31.4089C52.5732 31.4331 52.3373 31.5585 52.1735 31.7571C52.0098 31.9558 51.9314 32.2114 51.9553 32.4678C51.9792 32.7243 52.1036 32.9609 52.3014 33.1256C52.496 33.2877 52.746 33.367 52.9981 33.3465H56.5649C56.6924 33.3481 56.819 33.3243 56.9372 33.2765C57.0561 33.2285 57.1642 33.1573 57.2553 33.0671C57.3464 32.9768 57.4187 32.8693 57.468 32.7509C57.5173 32.6325 57.5426 32.5055 57.5426 32.3772C57.5426 32.2489 57.5173 32.1218 57.468 32.0034C57.4187 31.885 57.3464 31.7775 57.2553 31.6873C57.1642 31.597 57.0561 31.5258 56.9372 31.4778C56.819 31.43 56.6924 31.4062 56.5649 31.4078H52.9981C52.942 31.4032 52.8855 31.4036 52.8294 31.4089Z" fill="white" stroke="white" stroke-width="0.5"/>
</svg>

<svg width="64" height="64" fill="none" xmlns="http://www.w3.org/2000/svg"><path d="M32.106 6.929a.965.965 0 00-.845.994v3.59a.973.973 0 00.593.907.962.962 0 001.27-.533.973.973 0 00.069-.373v-3.59a.973.973 0 00-.672-.957.962.962 0 00-.415-.038zm0 0l.031.248m-.03-.248h-.001l.031.248m0 0a.715.715 0 00-.626.742h1.432a.723.723 0 00-.499-.714.713.713 0 00-.307-.028zm-.03 45.072a.963.963 0 00-.617.335m.616-.335l-.617.335m.617-.335a.963.963 0 01.414.038l-.076.238.076-.238a.966.966 0 01.673.956v3.591a.973.973 0 01-.593.906.963.963 0 01-1.27-.533.973.973 0 01-.069-.373v-3.59m.845-.995l-.845.994m.229-.659a.972.972 0 00-.229.66m.229-.66l-.229.66M63.26 32.485a.434.434 0 00-.003-.024l.002-.085v-.002c0-17.21-13.901-31.18-31.032-31.18-17.132 0-31.033 13.97-31.033 31.182 0 17.212 13.901 31.183 31.033 31.183 14.84 0 27.231-10.514 30.286-24.51.012-.039.02-.09.028-.131a46.6 46.6 0 00.144-.997 154.337 154.337 0 00.51-4.373c.028-.3.05-.555.06-.742a3.74 3.74 0 00.009-.233.93.93 0 00-.004-.088zM32.227 3.133c15.783 0 28.62 12.606 29.088 28.354a441.553 441.553 0 00-.678 7.171C57.767 51.78 46.15 61.621 32.226 61.621c-16.08 0-29.1-13.083-29.1-29.244 0-16.16 13.02-29.244 29.1-29.244zM19.135 18.464h0-.004a.967.967 0 00-.694 1.303l7.18 18.702.002.002a.97.97 0 00.543.545l.002.001 18.585 7.192.003.001a.962.962 0 001.038-.205.97.97 0 00.228-1.037v-.002l-7.182-18.703v-.002a.97.97 0 00-.544-.546h-.002l-18.586-7.192a.962.962 0 00-.569-.059zm18.066 8.913l6.224 16.253-16.172-6.275-6.224-16.253 16.172 6.275zm-4.974 2.592a2.403 2.403 0 00-2.398 2.408 2.403 2.403 0 002.398 2.408 2.403 2.403 0 002.398-2.408 2.403 2.403 0 00-2.398-2.408zM7.729 31.41a.968.968 0 00-.874 1.059.973.973 0 001.043.878h3.567a.961.961 0 00.903-.595.972.972 0 00-.903-1.343H7.898a.96.96 0 00-.169 0zm45.1 0a.968.968 0 00-.874 1.059.973.973 0 001.043.878h3.567a.961.961 0 00.903-.595.972.972 0 00-.903-1.343h-3.567a.96.96 0 00-.169 0z" fill="#fff" stroke="#fff" stroke-width=".5"/></svg>
